X: 19
T: The Seven Step
R: barndance
M: 4/4
L: 1/8
K: Gmaj
G2 G2 G2 G2 | F>GA>F G2 D2 | B2 B2 B2 B2 | A>Bc>A B2 G2 ||
e2 e2 d2 B2 | c2 c2 B2 G2 | F2 A2 A2- A>G | F>DE>F G>AB>d |
e2 e2 d2- d>B | c2 c2 B2- B>G | E2 A2 A2- A>G | F>DE>F G2 D2 |]


Tune 1307	Setting 26915

